actions/24/media-playback-pause.svg

<?xml version="1.0" encoding="UTF-8" standalone="no"?>
<svg
   xmlns:dc="http://purl.org/dc/elements/1.1/"
   xmlns:cc="http://creativecommons.org/ns#"
   xmlns:rdf="http://www.w3.org/1999/02/22-rdf-syntax-ns#"
   xmlns:svg="http://www.w3.org/2000/svg"
   xmlns="http://www.w3.org/2000/svg"
   xmlns:xlink="http://www.w3.org/1999/xlink"
   version="1.1"
   width="24"
   height="24"
   id="svg3792">
  <defs
     id="defs3794">
    <radialGradient
       cx="21.385109"
       cy="-19.005346"
       r="19.99999"
       fx="21.385109"
       fy="-19.005346"
       id="radialGradient3008"
       xlink:href="#linearGradient2867-449-88-871-390-598-476-591-434-148-57-177-641-289-620-227-114-444-680-744-4"
       gradientUnits="userSpaceOnUse"
       gradientTransform="matrix(0,1.5000006,-1.5241254,0,-16.959842,-23.077676)" />
    <linearGradient
       id="linearGradient2867-449-88-871-390-598-476-591-434-148-57-177-641-289-620-227-114-444-680-744-4">
      <stop
         id="stop5430-5"
         style="stop-color:#737373;stop-opacity:1"
         offset="0" />
      <stop
         id="stop5432-2"
         style="stop-color:#636363;stop-opacity:1"
         offset="0.26238" />
      <stop
         id="stop5434-9"
         style="stop-color:#4b4b4b;stop-opacity:1"
         offset="0.704952" />
      <stop
         id="stop5436-2"
         style="stop-color:#3f3f3f;stop-opacity:1"
         offset="1" />
    </linearGradient>
    <radialGradient
       cx="21.385109"
       cy="-19.005346"
       r="19.99999"
       fx="21.385109"
       fy="-19.005346"
       id="radialGradient2996"
       xlink:href="#linearGradient2867-449-88-871-390-598-476-591-434-148-57-177-641-289-620-227-114-444-680-744-4"
       gradientUnits="userSpaceOnUse"
       gradientTransform="matrix(0,1.5000006,-1.5241254,0,-16.959842,-31.077676)" />
  </defs>
  <metadata
     id="metadata3797">
    <rdf:RDF>
      <cc:Work
         rdf:about="">
        <dc:format>image/svg+xml</dc:format>
        <dc:type
           rdf:resource="http://purl.org/dc/dcmitype/StillImage" />
        <dc:title />
      </cc:Work>
    </rdf:RDF>
  </metadata>
  <path
     d="M 2.375,0.9999997 C 2.1548654,1.0518391 1.9881281,1.2741554 2,1.4999997 L 2,21.5 c -0.00691,0.263625 0.2363747,0.506913 0.5,0.5 l 7,0 c 0.2636253,0.0069 0.506913,-0.236375 0.5,-0.5 L 10,1.4999998 c 0.0069,-0.2636253 -0.2363747,-0.5069128 -0.5,-0.5 l -7,0 c -0.020805,-0.00134 -0.041695,-0.00134 -0.0625,0 -0.020805,-0.00134 -0.041695,-0.00134 -0.0625,0 z m 12,0 c -0.220135,0.051839 -0.386872,0.2741557 -0.375,0.5 L 14,21.5 c -0.0069,0.263625 0.236375,0.506913 0.5,0.5 l 7,0 c 0.263625,0.0069 0.506913,-0.236375 0.5,-0.5 L 22,1.4999998 c 0.0069,-0.2636253 -0.236375,-0.5069128 -0.5,-0.5 l -7,0 c -0.0208,-0.00134 -0.0417,-0.00134 -0.0625,0 -0.0208,-0.00134 -0.0417,-0.00134 -0.0625,0 z"
     id="path3797"
     style="color:#000000;fill:url(#radialGradient2996);fill-opacity:1;fill-rule:nonzero;stroke:none;stroke-width:1;marker:none;visibility:visible;display:inline;overflow:visible;enable-background:accumulate" />
  <path
     d="m 2.5012942,1.5016359 0,19.9974121 6.9987058,0 0,-19.9974121 z m 11.9987058,0 0,19.9974121 6.998705,0 0,-19.9974121 z"
     id="path2645"
     style="opacity:0.1;color:#000000;fill:none;stroke:#000000;stroke-width:1.00365424;stroke-linecap:round;stroke-linejoin:round;stroke-miterlimit:4;stroke-opacity:1;stroke-dasharray:none;stroke-dashoffset:0;marker:none;visibility:visible;display:inline;overflow:visible;enable-background:accumulate" />
  <path
     d="m 15.5,2.497139 0,18.005723 5.002861,-0.02133 0,-17.984392 z m -12.0028615,-1e-6 0,18.005724 L 8.5,20.481532 8.5,2.497141 z"
     id="path2647"
     style="opacity:0.02999998;fill:none;stroke:#000000;stroke-width:0.99427688;stroke-linecap:round;stroke-linejoin:miter;stroke-miterlimit:4;stroke-opacity:1;stroke-dasharray:none;stroke-dashoffset:0;marker:none;visibility:visible;display:inline;overflow:visible" />
</svg>

<svg xmlns="http://www.w3.org/2000/svg" xmlns:xlink="http://www.w3.org/1999/xlink" viewBox="0 0 24 24"><defs><linearGradient id="a"><stop offset="0" stop-color="#737373"/><stop offset=".262" stop-color="#636363"/><stop offset=".705" stop-color="#4b4b4b"/><stop offset="1" stop-color="#3f3f3f"/></linearGradient><radialGradient cx="21.385" cy="-19.005" r="20" fx="21.385" fy="-19.005" id="b" xlink:href="#a" gradientUnits="userSpaceOnUse" gradientTransform="matrix(0 1.5 -1.52413 0 -16.96 -31.078)"/></defs><path d="M2.375 1A.503.503 0 0 0 2 1.5v20a.507.507 0 0 0 .5.5h7a.507.507 0 0 0 .5-.5v-20a.507.507 0 0 0-.5-.5H2.375zm12 0a.503.503 0 0 0-.375.5v20a.507.507 0 0 0 .5.5h7a.507.507 0 0 0 .5-.5v-20a.507.507 0 0 0-.5-.5h-7.125z" color="#000" fill="url(#b)" overflow="visible"/><path d="M2.5 1.502V21.5h7v-20zm12 0V21.5h7v-20z" opacity=".1" color="#000" fill="none" stroke="#000" stroke-width="1.004" stroke-linecap="round" stroke-linejoin="round" overflow="visible"/><path d="M15.5 2.497v18.006l5.003-.02V2.496zm-12.003 0v18.006l5.003-.02V2.496z" opacity=".03" fill="none" stroke="#000" stroke-width=".994" stroke-linecap="round" overflow="visible"/></svg>
